X:1
T: Kitty Come Over
C:
R:Jig
Q:180
K:G
M:6/8
L:1/16
c2|B2c2A2 B2G2E2|G2A2G2 G2B2d2|e2f2g2 d2e2d2|B2A2A2 A4c2|B2c2A2 B2G2E2|G2A2G2 G2B2d2|e2f2g2 d2e2c2|B2G2G2 G4c2|
B2c2A2 B2G2E2|G2A2G2 G2B2d2|e2f2g2 d2e2d2|B2A2A2 A4c2|B2c2A2 B2G2E2|G2A2G2 G2B2d2|e2f2g2 d2e2c2|B2G2G2 G4f2|
g2f2g2 e2f2g2|f2a2g2 f2e2d2|g2f2g2 e2f2d2|e2A2A2 A4c2|B2c2A2 B2G2E2|G2A2G2 G2B2d2|e2f2g2 d2e2c2|B2G2G2 G4f2|
g2f2g2 e2f2g2|f2a2g2 f2e2d2|g2f2g2 e2f2d2|e2A2A2 A4c2|B2c2A2 B2G2E2|G2A2G2 G2B2d2|e2f2g2 d2e2c2|B2G2G2 G4||
